src/actions/22/align-vertical-baseline.svg

<svg xmlns="http://www.w3.org/2000/svg" viewBox="0 0 22 22">
  <defs id="defs3051">
    <style type="text/css" id="current-color-scheme">
      .ColorScheme-Text {
        color:#363636;
      }
      </style>
  </defs>
 <path 
    style="fill:currentColor;fill-opacity:1;stroke:none" 
    d="M 6.0957031 6 C 6.3652431 7.7782 7.0627644 9.6481156 8.6464844 11.353516 C 7.9262522 12.259947 7.0171878 13.140522 5.8417969 14 L 3 14 L 3 15 L 4.3261719 15 C 3.8277197 15.299036 3.2999909 15.596455 2.71875 15.890625 L 3.3144531 17 C 4.5587446 16.370262 5.6250222 15.69833 6.5546875 15 L 19 15 L 19 14 L 7.7714844 14 C 10.590253 11.459983 11.822478 8.6319595 12.71875 6 L 11.361328 6 C 10.849378 7.5034 10.25818 8.9317937 9.375 10.308594 C 8.11027 8.8922938 7.5182725 7.5122 7.2890625 6 L 6.0957031 6 z M 16.136719 6 C 14.963989 6.025 14.064716 6.2175469 13.410156 6.4980469 L 13.777344 7.7597656 C 14.090984 7.6576656 15.277196 7.3007812 15.972656 7.3007812 L 16.068359 7.3007812 C 17.036549 7.3387813 17.105469 7.6694656 17.105469 8.4472656 L 17.105469 8.7539062 L 16.599609 8.8320312 C 14.254119 9.1508313 13 9.4184625 13 11.101562 C 13 12.274563 13.913578 13 15.236328 13 C 16.149968 13 16.749661 12.642803 17.363281 12.158203 L 17.554688 12.873047 L 19 12.873047 L 19 8.1542969 C 19 6.7134969 17.937151 6 16.300781 6 L 16.136719 6 z M 17.105469 9.75 L 17.105469 11.318359 C 16.600939 11.637159 16.219003 11.865234 15.564453 11.865234 C 14.978083 11.865234 14.691406 11.521609 14.691406 11.037109 C 14.691406 10.119109 15.549579 9.9645188 16.599609 9.8242188 L 17.105469 9.75 z "
    class="ColorScheme-Text"
    />  
</svg>

<svg xmlns="http://www.w3.org/2000/svg" viewBox="0 0 22 22">
    <path d="M6.096 6c.27 1.778.967 3.648 2.55 5.354-.72.906-1.629 1.787-2.804 2.646H3v1h1.326c-.498.299-1.026.596-1.607.89L3.314 17a21.61 21.61 0 0 0 3.24-2H19v-1H7.771c2.82-2.54 4.051-5.368 4.948-8H11.36c-.512 1.503-1.103 2.932-1.986 4.309C8.11 8.892 7.518 7.512 7.289 6H6.096zm10.04 0c-1.172.025-2.071.218-2.726.498l.367 1.262c.314-.102 1.5-.46 2.196-.46h.095c.969.039 1.037.37 1.037 1.147v.307l-.505.078c-2.346.319-3.6.586-3.6 2.27 0 1.173.914 1.898 2.236 1.898.914 0 1.514-.357 2.127-.842l.192.715H19V8.154C19 6.714 17.937 6 16.3 6h-.163zm.97 3.75v1.568c-.505.32-.887.547-1.542.547-.586 0-.873-.343-.873-.828 0-.918.859-1.072 1.909-1.213l.505-.074z" style="fill:currentColor;fill-opacity:1;stroke:none;color:#050505;opacity:.7"/>
</svg>
